svg/device/watch_line.svg

<?xml version="1.0" encoding="UTF-8"?>
<svg width="24px" height="24px" viewBox="0 0 24 24" version="1.1" xmlns="http://www.w3.org/2000/svg" xmlns:xlink="http://www.w3.org/1999/xlink">
    <title>watch_line</title>
    <g id="页面-1" stroke="none" stroke-width="1" fill="none" fill-rule="evenodd">
        <g id="Device" transform="translate(-816.000000, 0.000000)" fill-rule="nonzero">
            <g id="watch_line" transform="translate(816.000000, 0.000000)">
                 <path d="M24,0 L24,24 L0,24 L0,0 L24,0 Z M12.5934901,23.257841 L12.5819402,23.2595131 L12.5108777,23.2950439 L12.4918791,23.2987469 L12.4918791,23.2987469 L12.4767152,23.2950439 L12.4056548,23.2595131 C12.3958229,23.2563662 12.3870493,23.2590235 12.3821421,23.2649074 L12.3780323,23.275831 L12.360941,23.7031097 L12.3658947,23.7234994 L12.3769048,23.7357139 L12.4804777,23.8096931 L12.4953491,23.8136134 L12.4953491,23.8136134 L12.5071152,23.8096931 L12.6106902,23.7357139 L12.6232938,23.7196733 L12.6232938,23.7196733 L12.6266527,23.7031097 L12.609561,23.275831 C12.6075724,23.2657013 12.6010112,23.2592993 12.5934901,23.257841 L12.5934901,23.257841 Z M12.8583906,23.1452862 L12.8445485,23.1473072 L12.6598443,23.2396597 L12.6498822,23.2499052 L12.6498822,23.2499052 L12.6471943,23.2611114 L12.6650943,23.6906389 L12.6699349,23.7034178 L12.6699349,23.7034178 L12.678386,23.7104931 L12.8793402,23.8032389 C12.8914285,23.8068999 12.9022333,23.8029875 12.9078286,23.7952264 L12.9118235,23.7811639 L12.8776777,23.1665331 C12.8752882,23.1545897 12.8674102,23.1470016 12.8583906,23.1452862 L12.8583906,23.1452862 Z M12.1430473,23.1473072 C12.1332178,23.1423925 12.1221763,23.1452606 12.1156365,23.1525954 L12.1099173,23.1665331 L12.0757714,23.7811639 C12.0751323,23.7926639 12.0828099,23.8018602 12.0926481,23.8045676 L12.108256,23.8032389 L12.3092106,23.7104931 L12.3186497,23.7024347 L12.3186497,23.7024347 L12.3225043,23.6906389 L12.340401,23.2611114 L12.337245,23.2485176 L12.337245,23.2485176 L12.3277531,23.2396597 L12.1430473,23.1473072 Z" id="MingCute" fill-rule="nonzero"></path>
                <path d="M14,2 C15.1046,2 16,2.89543 16,4 L16,5.41604 C17.7659,6.1876 19,7.94968 19,10 L19,14 C19,16.0503 17.7659,17.8124 16,18.584 L16,20 C16,21.1046 15.1046,22 14,22 L10,22 C8.89543,22 8,21.1046 8,20 L8,18.584 C6.2341,17.8124 5,16.0503 5,14 L5,10 C5,7.94968 6.2341,6.1876 8,5.41604 L8,4 C8,2.89543 8.89543,2 10,2 L14,2 Z M14,19 L10,19 L10,20 L14,20 L14,19 Z M14,7 L10,7 C8.40232321,7 7.09633941,8.24892392 7.00509271,9.82372764 L7,10 L7,14 C7,15.597725 8.24892392,16.903664 9.82372764,16.9949075 L10,17 L14,17 C15.597725,17 16.903664,15.7511226 16.9949075,14.1762773 L17,14 L17,10 C17,8.34315 15.6569,7 14,7 Z M12,8 C12.5523,8 13,8.44772 13,9 L13,11.5859 L14.1562,12.7421 C14.5467,13.1326 14.5467,13.7658 14.1562,14.1563 C13.7657,14.5468 13.1325,14.5468 12.742,14.1563 L11.2928,12.7071 C11.0941,12.5084 10.9965,12.2468 11,11.9863 L11,9 C11,8.44772 11.4477,8 12,8 Z M14,4 L10,4 L10,5 L14,5 L14,4 Z" id="形状" fill="#09244B"></path>
            </g>
        </g>
    </g>
</svg>

<svg xmlns="http://www.w3.org/2000/svg" width="24" height="24"><g fill="none" fill-rule="nonzero"><path d="M24 0v24H0V0h24ZM12.593 23.258l-.011.002-.071.035-.02.004-.014-.004-.071-.035c-.01-.004-.019-.001-.024.005l-.004.01-.017.428.005.02.01.013.104.074.015.004.012-.004.104-.074.012-.016.004-.017-.017-.427c-.002-.01-.009-.017-.017-.018Zm.265-.113-.013.002-.185.093-.01.01-.003.011.018.43.005.012.008.007.201.093c.012.004.023 0 .029-.008l.004-.014-.034-.614c-.003-.012-.01-.02-.02-.022Zm-.715.002a.023.023 0 0 0-.027.006l-.006.014-.034.614c0 .012.007.02.017.024l.015-.002.201-.093.01-.008.004-.011.017-.43-.003-.012-.01-.01-.184-.092Z"/><path fill="#09244B" d="M14 2a2 2 0 0 1 2 2v1.416c1.766.772 3 2.534 3 4.584v4a5.001 5.001 0 0 1-3 4.584V20a2 2 0 0 1-2 2h-4a2 2 0 0 1-2-2v-1.416A5.001 5.001 0 0 1 5 14v-4a5.001 5.001 0 0 1 3-4.584V4a2 2 0 0 1 2-2h4Zm0 17h-4v1h4v-1Zm0-12h-4a3 3 0 0 0-2.995 2.824L7 10v4a3 3 0 0 0 2.824 2.995L10 17h4a3 3 0 0 0 2.995-2.824L17 14v-4a3 3 0 0 0-3-3Zm-2 1a1 1 0 0 1 1 1v2.586l1.156 1.156a1 1 0 0 1-1.414 1.414l-1.45-1.449a.997.997 0 0 1-.292-.72V9a1 1 0 0 1 1-1Zm2-4h-4v1h4V4Z"/></g></svg>
